modules/hawcons-stroke/icons/icon-23-stop-watch.svg

<?xml version="1.0" encoding="UTF-8" standalone="no"?>
<svg width="32px" height="32px" viewBox="0 0 32 32" version="1.1" xmlns="http://www.w3.org/2000/svg" xmlns:xlink="http://www.w3.org/1999/xlink" xmlns:sketch="http://www.bohemiancoding.com/sketch/ns">
    <!-- Generator: Sketch 3.0.3 (7891) - http://www.bohemiancoding.com/sketch -->
    <title>icon 23 stop watch</title>
    <desc>Created with Sketch.</desc>
    <defs></defs>
    <g id="Page-1" stroke="none" stroke-width="1" fill="none" fill-rule="evenodd" sketch:type="MSPage">
        <g id="icon-23-stop-watch" sketch:type="MSArtboardGroup" fill="#929292">
            <path d="M8.72946725,11.0223605 C10.2591414,9.61951962 12.1696273,8.62527274 14.2880086,8.21253595 C13.5019056,7.57072246 13,6.5939744 13,5.5 C13,3.56700338 14.5670034,2 16.5,2 C18.4329966,2 20,3.56700338 20,5.5 C20,6.5939744 19.4980944,7.57072246 18.7119914,8.21253595 L18.7119914,8.21253595 C20.8303727,8.62527274 22.7408586,9.61951962 24.2705328,11.0223605 L24.2705328,11.0223605 L25.5,9.79289322 L24.7928932,9.08578644 L25.5,8.37867966 L27.6213203,10.5 L26.9142136,11.2071068 L26.2071068,10.5 L24.9776395,11.7294672 C26.8545105,13.7760295 28,16.5042431 28,19.5 C28,25.8512746 22.8512746,31 16.5,31 C10.1487254,31 5,25.8512746 5,19.5 C5,16.5042431 6.14548946,13.7760295 8.02236046,11.7294672 L6.79289322,10.5 L6.08578644,11.2071068 L5.37867966,10.5 L7.5,8.37867966 L8.20710678,9.08578644 L7.5,9.79289322 L8.72946725,11.0223605 L8.72946725,11.0223605 Z M17.1467077,18.1461855 L20.2653467,15.0275465 C20.4566334,14.8362598 20.7796116,14.8298641 20.9748737,15.0251263 C21.1644253,15.2146778 21.1690523,15.5380545 20.9724535,15.7346533 L17.8538145,18.8532923 C17.9475239,19.0491099 18,19.2684267 18,19.5 C18,20.3284271 17.3284271,21 16.5,21 C16.2684267,21 16.0491099,20.9475239 15.8532923,20.8538145 L14.7346533,21.9724535 C14.5433666,22.1637402 14.2203884,22.1701359 14.0251263,21.9748737 C13.8355747,21.7853222 13.8309477,21.4619455 14.0275465,21.2653467 L15.1461855,20.1467077 C15.0524761,19.9508901 15,19.7315733 15,19.5 C15,18.6715729 15.6715729,18 16.5,18 C16.7315733,18 16.9508901,18.0524761 17.1467077,18.1461855 L17.1467077,18.1461855 L17.1467077,18.1461855 Z M17,7.94999094 C18.1411202,7.71835578 19,6.70947896 19,5.5 C19,4.11928813 17.8807119,3 16.5,3 C15.1192881,3 14,4.11928813 14,5.5 C14,6.70947896 14.8588798,7.71835578 16,7.94999094 L16,6 L15,6 L15,5 L18,5 L18,6 L17,6 L17,7.94999094 L17,7.94999094 L17,7.94999094 Z M9.01625397,19.9977417 C9.26161401,23.7425502 12.2554932,26.7371327 16,26.9835977 L16,26.9835977 L16,24.4859619 C16,24.2105408 16.2238576,23.9954834 16.5,23.9954834 C16.7680664,23.9954834 17,24.2150781 17,24.4859619 L17,26.9835977 C20.7445068,26.7371327 23.738386,23.7425502 23.983746,19.9977417 L21.4882202,19.9977417 C21.2127991,19.9977417 20.9977417,19.7738841 20.9977417,19.4977417 C20.9977417,19.2296753 21.2173364,18.9977417 21.4882202,18.9977417 L23.9834487,18.9977417 L23.9834487,18.9977417 C23.7359784,15.2550422 20.7430013,12.2627682 17,12.0164023 L17,12.0164023 L17,14.5095215 C17,14.7849426 16.7761424,15 16.5,15 C16.2319336,15 16,14.7804053 16,14.5095215 L16,12.0164023 C12.2569987,12.2627682 9.26402159,15.2550422 9.01655126,18.9977417 L11.5117798,18.9977417 C11.7872009,18.9977417 12.0022583,19.2215993 12.0022583,19.4977417 C12.0022583,19.7658081 11.7826636,19.9977417 11.5117798,19.9977417 L9.01625397,19.9977417 L9.01625397,19.9977417 L9.01625397,19.9977417 Z M16.5,30 C22.2989899,30 27,25.2989899 27,19.5 C27,13.7010101 22.2989899,9 16.5,9 C10.7010101,9 6,13.7010101 6,19.5 C6,25.2989899 10.7010101,30 16.5,30 L16.5,30 Z M16.5,28 C21.1944204,28 25,24.1944204 25,19.5 C25,14.8055796 21.1944204,11 16.5,11 C11.8055796,11 8,14.8055796 8,19.5 C8,24.1944204 11.8055796,28 16.5,28 L16.5,28 Z M16.5,20 C16.7761424,20 17,19.7761424 17,19.5 C17,19.2238576 16.7761424,19 16.5,19 C16.2238576,19 16,19.2238576 16,19.5 C16,19.7761424 16.2238576,20 16.5,20 L16.5,20 Z" id="stop-watch" sketch:type="MSShapeGroup"></path>
        </g>
    </g>
</svg>

<svg width="32" height="32" viewBox="0 0 32 32" xmlns="http://www.w3.org/2000/svg"><path d="M8.73 11.022a11.466 11.466 0 0 1 5.558-2.81 3.5 3.5 0 1 1 4.424 0 11.466 11.466 0 0 1 5.559 2.81l1.229-1.23-.707-.706.707-.707 2.121 2.121-.707.707-.707-.707-1.23 1.23A11.459 11.459 0 0 1 28 19.5C28 25.851 22.851 31 16.5 31S5 25.851 5 19.5c0-2.996 1.145-5.724 3.022-7.77l-1.23-1.23-.706.707-.707-.707L7.5 8.379l.707.707-.707.707 1.23 1.23zm8.417 7.124l3.118-3.118a.507.507 0 0 1 .71-.003c.19.19.194.513-.003.71l-3.118 3.118a1.5 1.5 0 0 1-2 2l-1.12 1.12a.507.507 0 0 1-.709.002.507.507 0 0 1 .003-.71l1.118-1.118a1.5 1.5 0 0 1 2-2zM17 7.95a2.5 2.5 0 1 0-1 0V6h-1V5h3v1h-1v1.95zM9.016 19.998A7.501 7.501 0 0 0 16 26.984v-2.498c0-.275.224-.49.5-.49a.5.5 0 0 1 .5.49v2.498a7.501 7.501 0 0 0 6.984-6.986h-2.496a.492.492 0 0 1-.49-.5.5.5 0 0 1 .49-.5h2.495A7.501 7.501 0 0 0 17 12.016v2.494c0 .275-.224.49-.5.49a.5.5 0 0 1-.5-.49v-2.494a7.501 7.501 0 0 0-6.983 6.982h2.495c.275 0 .49.224.49.5a.5.5 0 0 1-.49.5H9.016zM16.5 30C22.299 30 27 25.299 27 19.5S22.299 9 16.5 9 6 13.701 6 19.5 10.701 30 16.5 30zm0-2a8.5 8.5 0 1 0 0-17 8.5 8.5 0 0 0 0 17zm0-8a.5.5 0 1 0 0-1 .5.5 0 0 0 0 1z" fill="#929292" fill-rule="evenodd"/></svg>
